src/assets/images/run-sprint.svg

<svg fill="#000000" xmlns="http://www.w3.org/2000/svg"  viewBox="0 0 50 50" width="50px" height="50px"><path d="M 45.03125 3.5 C 42.273438 3.5 40.03125 5.742188 40.03125 8.5 C 40.03125 11.257813 42.273438 13.5 45.03125 13.5 C 47.789063 13.5 50.03125 11.257813 50.03125 8.5 C 50.03125 5.742188 47.789063 3.5 45.03125 3.5 Z M 27.59375 3.5625 C 27.425781 3.5625 27.265625 3.570313 27.125 3.59375 L 16.75 4.71875 C 15.859375 4.972656 13.484375 5.621094 13.78125 7.53125 C 13.90625 8.53125 15.300781 9 16.53125 9 C 16.679688 9 16.824219 8.980469 16.90625 8.96875 L 26.625 8.78125 L 30.0625 11.46875 L 22.3125 16.90625 C 20.214844 18.429688 18.316406 20.417969 20.1875 23.6875 L 27.09375 33.65625 C 24.605469 33.6875 17.960938 33.773438 16.46875 33.9375 C 14.082031 34.21875 13.71875 35.625 13.71875 36.4375 C 13.71875 37.679688 14.597656 38.9375 16.53125 38.9375 L 32.625 38.9375 C 33.925781 38.9375 34.933594 38.460938 35.40625 37.65625 C 35.832031 36.9375 35.800781 36.027344 35.28125 35.09375 C 34.566406 33.757813 29.488281 26.039063 28.28125 24.15625 L 38.5625 17.625 C 40.085938 16.65625 40.433594 15.167969 39.53125 13.5625 C 38.828125 12.257813 37.105469 9.617188 37.0625 9.5625 C 36.992188 9.421875 36.863281 9.140625 29.1875 4.09375 C 28.742188 3.738281 28.1875 3.5625 27.59375 3.5625 Z M 0.8125 12 C 0.308594 12.105469 -0.03125 12.574219 0.015625 13.082031 C 0.0625 13.59375 0.488281 13.988281 1 14 L 20 14 C 20.394531 14.058594 20.785156 13.882813 21 13.546875 C 21.214844 13.214844 21.214844 12.785156 21 12.453125 C 20.785156 12.117188 20.394531 11.941406 20 12 L 1 12 C 0.9375 11.996094 0.875 11.996094 0.8125 12 Z M 0.8125 17 C 0.308594 17.105469 -0.03125 17.574219 0.015625 18.082031 C 0.0625 18.59375 0.488281 18.988281 1 19 L 15 19 C 15.394531 19.058594 15.785156 18.882813 16 18.546875 C 16.214844 18.214844 16.214844 17.785156 16 17.453125 C 15.785156 17.117188 15.394531 16.941406 15 17 L 1 17 C 0.9375 16.996094 0.875 16.996094 0.8125 17 Z M 40.46875 18.65625 C 40.214844 18.886719 39.9375 19.113281 39.625 19.3125 L 35.21875 22.125 L 35.5 23.78125 C 35.507813 23.820313 35.515625 23.871094 35.53125 23.90625 C 35.847656 24.640625 36.261719 25.359375 37.4375 25.5 C 37.503906 25.496094 44.34375 25.09375 45.84375 25.09375 C 48.617188 24.921875 49.121094 23.679688 49.1875 22.9375 C 49.226563 22.320313 49.109375 21.859375 48.8125 21.53125 C 48.335938 21.003906 47.585938 20.972656 46.78125 20.9375 C 46.605469 20.929688 46.414063 20.921875 46.21875 20.90625 L 40.65625 20.625 Z M 0.8125 22 C 0.308594 22.105469 -0.03125 22.574219 0.015625 23.082031 C 0.0625 23.59375 0.488281 23.988281 1 24 L 15 24 C 15.394531 24.058594 15.785156 23.882813 16 23.546875 C 16.214844 23.214844 16.214844 22.785156 16 22.453125 C 15.785156 22.117188 15.394531 21.941406 15 22 L 1 22 C 0.9375 21.996094 0.875 21.996094 0.8125 22 Z M 0.8125 27 C 0.308594 27.105469 -0.03125 27.574219 0.015625 28.082031 C 0.0625 28.59375 0.488281 28.988281 1 29 L 19 29 C 19.394531 29.058594 19.785156 28.882813 20 28.546875 C 20.214844 28.214844 20.214844 27.785156 20 27.453125 C 19.785156 27.117188 19.394531 26.941406 19 27 L 1 27 C 0.9375 26.996094 0.875 26.996094 0.8125 27 Z M 19.84375 40.9375 C 18.332031 42.5 16.671875 44.214844 15.90625 45.125 C 14.539063 46.71875 14.34375 48.285156 15.375 49.4375 C 15.828125 49.839844 16.296875 50 16.78125 50 C 17.871094 50 19.007813 49.136719 20.03125 48.21875 C 21.140625 47.238281 24.90625 43.5 27.46875 40.9375 Z"/></svg>

<?xml version="1.0" encoding="utf-8"?>
<!-- Generator: Adobe Illustrator 26.2.1, SVG Export Plug-In . SVG Version: 6.00 Build 0)  -->
<svg version="1.1" id="Calque_1" xmlns="http://www.w3.org/2000/svg" xmlns:xlink="http://www.w3.org/1999/xlink" x="0px" y="0px"
	 viewBox="0 0 50 50" style="enable-background:new 0 0 50 50;" xml:space="preserve">
<style type="text/css">
	.st0{fill:#BEF163;}
</style>
<path class="st0" d="M45,3.5c-2.8,0-5,2.2-5,5s2.2,5,5,5s5-2.2,5-5S47.8,3.5,45,3.5z M27.6,3.6c-0.2,0-0.3,0-0.5,0L16.8,4.7
	c-0.9,0.3-3.3,0.9-3,2.8c0.1,1,1.5,1.5,2.8,1.5c0.1,0,0.3,0,0.4,0l9.7-0.2l3.4,2.7l-7.8,5.4c-2.1,1.5-4,3.5-2.1,6.8l6.9,10
	c-2.5,0-9.1,0.1-10.6,0.3c-2.4,0.3-2.8,1.7-2.8,2.5c0,1.2,0.9,2.5,2.8,2.5h16.1c1.3,0,2.3-0.5,2.8-1.3c0.4-0.7,0.4-1.6-0.1-2.6
	c-0.7-1.3-5.8-9.1-7-10.9l10.3-6.5c1.5-1,1.9-2.5,1-4.1c-0.7-1.3-2.4-3.9-2.5-4c-0.1-0.1-0.2-0.4-7.9-5.5
	C28.7,3.7,28.2,3.6,27.6,3.6z M0.8,12C0.3,12.1,0,12.6,0,13.1c0,0.5,0.5,0.9,1,0.9h19c0.4,0.1,0.8-0.1,1-0.5c0.2-0.3,0.2-0.8,0-1.1
	c-0.2-0.3-0.6-0.5-1-0.5H1C0.9,12,0.9,12,0.8,12z M0.8,17C0.3,17.1,0,17.6,0,18.1c0,0.5,0.5,0.9,1,0.9h14c0.4,0.1,0.8-0.1,1-0.5
	c0.2-0.3,0.2-0.8,0-1.1c-0.2-0.3-0.6-0.5-1-0.5H1C0.9,17,0.9,17,0.8,17z M40.5,18.7c-0.3,0.2-0.5,0.5-0.8,0.7l-4.4,2.8l0.3,1.7
	c0,0,0,0.1,0,0.1c0.3,0.7,0.7,1.5,1.9,1.6c0.1,0,6.9-0.4,8.4-0.4c2.8-0.2,3.3-1.4,3.3-2.2c0-0.6-0.1-1.1-0.4-1.4
	c-0.5-0.5-1.2-0.6-2-0.6c-0.2,0-0.4,0-0.6,0l-5.6-0.3L40.5,18.7z M0.8,22C0.3,22.1,0,22.6,0,23.1c0,0.5,0.5,0.9,1,0.9h14
	c0.4,0.1,0.8-0.1,1-0.5c0.2-0.3,0.2-0.8,0-1.1c-0.2-0.3-0.6-0.5-1-0.5H1C0.9,22,0.9,22,0.8,22z M0.8,27C0.3,27.1,0,27.6,0,28.1
	c0,0.5,0.5,0.9,1,0.9h18c0.4,0.1,0.8-0.1,1-0.5c0.2-0.3,0.2-0.8,0-1.1c-0.2-0.3-0.6-0.5-1-0.5H1C0.9,27,0.9,27,0.8,27z M19.8,40.9
	c-1.5,1.6-3.2,3.3-3.9,4.2c-1.4,1.6-1.6,3.2-0.5,4.3c0.5,0.4,0.9,0.6,1.4,0.6c1.1,0,2.2-0.9,3.2-1.8c1.1-1,4.9-4.7,7.4-7.3H19.8z"/>
</svg>
